packages/core/src/svgs/sph.svg

<svg width="24" height="24" viewBox="0 0 24 24" fill="none" xmlns="http://www.w3.org/2000/svg">
<g clip-path="url(#clip0_31_19148)">
<path d="M0 0H24V24H0V0Z" fill="url(#paint0_linear_31_19148)"/>
<path d="M12.0002 12.8574C14.1305 12.8574 15.8574 11.1305 15.8574 9.00021C15.8574 6.86997 14.1305 5.14307 12.0002 5.14307C9.86997 5.14307 8.14307 6.86997 8.14307 9.00021C8.14307 11.1305 9.86997 12.8574 12.0002 12.8574Z" fill="url(#paint1_linear_31_19148)"/>
<path d="M8.99986 16.7144C10.8934 16.7144 12.4284 16.0428 12.4284 15.2144C12.4284 14.3859 10.8934 13.7144 8.99986 13.7144C7.10631 13.7144 5.57129 14.3859 5.57129 15.2144C5.57129 16.0428 7.10631 16.7144 8.99986 16.7144Z" fill="#CCB806"/>
<path d="M14.9999 16.7144C16.8934 16.7144 18.4284 16.0428 18.4284 15.2144C18.4284 14.3859 16.8934 13.7144 14.9999 13.7144C13.1063 13.7144 11.5713 14.3859 11.5713 15.2144C11.5713 16.0428 13.1063 16.7144 14.9999 16.7144Z" fill="#BC266E"/>
<path d="M11.9999 15.943C12.2741 15.7287 12.4284 15.4801 12.4284 15.2144C12.4284 14.9487 12.2741 14.7001 11.9999 14.4858C11.7256 14.7001 11.5713 14.9487 11.5713 15.2144C11.5713 15.4801 11.7256 15.7287 11.9999 15.943Z" fill="#F2C01C"/>
<path d="M11.9999 18.8569C13.8934 18.8569 15.4284 18.1854 15.4284 17.3569C15.4284 16.5285 13.8934 15.8569 11.9999 15.8569C10.1063 15.8569 8.57129 16.5285 8.57129 17.3569C8.57129 18.1854 10.1063 18.8569 11.9999 18.8569Z" fill="#5DC9B5"/>
<path d="M15.0985 16.7141H14.9999C13.6328 16.7141 12.4542 16.3626 11.9014 15.8569H11.9999C13.3671 15.8569 14.5457 16.2084 15.0985 16.7141Z" fill="#CF4E92"/>
<path d="M12.0985 15.8569C11.5457 16.3626 10.3671 16.7141 8.99994 16.7141H8.90137C9.45422 16.2084 10.6328 15.8569 11.9999 15.8569H12.0985Z" fill="#DFE02A"/>
</g>
<defs>
<linearGradient id="paint0_linear_31_19148" x1="4.46571" y1="4.16143" x2="29.2071" y2="32.58" gradientUnits="userSpaceOnUse">
<stop stop-color="#1A1E21"/>
<stop offset="1" stop-color="#06060A"/>
</linearGradient>
<linearGradient id="paint1_linear_31_19148" x1="10.5002" y1="5.78592" x2="13.2859" y2="12.6431" gradientUnits="userSpaceOnUse">
<stop stop-color="#CCCCCC"/>
<stop offset="0.49" stop-color="#EDEDED"/>
<stop offset="1" stop-color="#C5C5C5"/>
</linearGradient>
<clipPath id="clip0_31_19148">
<rect width="24" height="24" fill="white"/>
</clipPath>
</defs>
</svg>

<svg xmlns="http://www.w3.org/2000/svg" width="24" height="24" fill="none" viewBox="0 0 24 24"><g clip-path="url(#a)"><path fill="url(#b)" d="M0 0h24v24H0z"/><path fill="url(#c)" d="M12 12.857a3.857 3.857 0 1 0 0-7.714 3.857 3.857 0 0 0 0 7.714"/><path fill="#CCB806" d="M9 16.714c1.893 0 3.428-.671 3.428-1.5 0-.828-1.535-1.5-3.428-1.5s-3.429.672-3.429 1.5c0 .829 1.535 1.5 3.429 1.5"/><path fill="#BC266E" d="M15 16.714c1.893 0 3.428-.671 3.428-1.5 0-.828-1.535-1.5-3.428-1.5s-3.429.672-3.429 1.5c0 .829 1.535 1.5 3.429 1.5"/><path fill="#F2C01C" d="M12 15.943c.274-.214.428-.463.428-.729s-.154-.514-.428-.728c-.274.214-.429.463-.429.728 0 .266.155.515.429.729"/><path fill="#5DC9B5" d="M12 18.857c1.893 0 3.428-.672 3.428-1.5s-1.535-1.5-3.428-1.5-3.429.672-3.429 1.5 1.535 1.5 3.429 1.5"/><path fill="#CF4E92" d="M15.099 16.714h-.1c-1.366 0-2.545-.351-3.098-.857H12c1.367 0 2.546.351 3.098.857"/><path fill="#DFE02A" d="M12.099 15.857c-.553.506-1.732.857-3.1.857h-.098c.553-.506 1.732-.857 3.099-.857z"/></g><defs><linearGradient id="b" x1="4.466" x2="29.207" y1="4.161" y2="32.58" gradientUnits="userSpaceOnUse"><stop stop-color="#1A1E21"/><stop offset="1" stop-color="#06060A"/></linearGradient><linearGradient id="c" x1="10.5" x2="13.286" y1="5.786" y2="12.643" gradientUnits="userSpaceOnUse"><stop stop-color="#CCC"/><stop offset=".49" stop-color="#EDEDED"/><stop offset="1" stop-color="#C5C5C5"/></linearGradient><clipPath id="a"><path fill="#fff" d="M0 0h24v24H0z"/></clipPath></defs></svg>
